!!!COM: Palestrina, Giovanni Perluigi da
!!!OPR: Missa In te Domine speravi (1599)
!!!OMD: Sanctus
!!!OTL: First Section
**kern	**kern	**kern	**kern	**kern	**kern
*Ibass	*Itenor	*Itenor	*Icalto	*Icant	*Icant
!Bassus	!Tenor 2	!Tenor 1	!Altus	!Cantus 2	!Cantus 1
*clefF4	*clefGv2	*clefGv2	*clefG2	*clefG2	*clefG2
*k[]	*k[]	*k[]	*k[]	*k[]	*k[]
*C:ion	*C:ion	*C:ion	*C:ion	*C:ion	*C:ion
*M4/2	*M4/2	*M4/2	*M4/2	*M4/2	*M4/2
=1	=1	=1	=1	=1	=1
0r	0r	0r	0r	1cc	0r
.	.	.	.	2cc	.
.	.	.	.	[2cc	.
=2	=2	=2	=2	=2	=2
0r	0r	0r	2.c	2cc]	0r
.	.	.	.	2cc	.
.	.	.	4d	.	.
.	.	.	2e	2b	.
.	.	.	2f	2a	.
=3	=3	=3	=3	=3	=3
0r	1r	0r	2e	1cc	1r
.	.	.	2c	.	.
.	2.c	.	2.e	1g	1cc
.	4d	.	4f	.	.
=4	=4	=4	=4	=4	=4
0r	2e	0r	2g	2r	2cc
.	2f	.	2a	4cc	1cc
.	.	.	.	4dd	.
.	2e	.	2g	4ee	.
.	.	.	.	4ff	.
.	2c	.	2e	[2gg	2cc
=5	=5	=5	=5	=5	=5
0r	2e	0r	2g	2gg]	2b
.	2f	.	2.a	2ff	2a
.	1c	.	.	1ee	2.cc
.	.	.	4g	.	.
.	.	.	[2g	.	.
.	.	.	.	.	4b
=6	=6	=6	=6	=6	=6
1r	1d	1r	2g]	2dd	1a
.	.	.	2f#	4a	.
.	.	.	.	4b	.
2.C	2.e	1c	1g	4cc	1g
.	.	.	.	4dd	.
.	.	.	.	[2ee	.
4D	4f	.	.	.	.
=7	=7	=7	=7	=7	=7
2E	2g	2c	1r	2ee]	2r
2F	2a	1c	.	4a	4cc
.	.	.	.	4b	4dd
2E	1g	.	2.e	4cc	4ee
.	.	.	.	4dd	4ff
2C	.	2c	.	[2ee	[2gg
.	.	.	4f	.	.
=8	=8	=8	=8	=8	=8
2E	2r	2B	2g	2ee]	2gg]
2F	2.c	2A	2a	2cc	2ff
2C	.	1c	2g	1cc	1ee
.	4d	.	.	.	.
[2c	4e	.	2c	.	.
.	4f	.	.	.	.
=9	=9	=9	=9	=9	=9
2c]	0g	1G	1d	0r	1dd
2B	.	.	.	.	.
2c	.	1r	1e	.	2.cc
[2C	.	.	.	.	.
.	.	.	.	.	4dd
=10	=10	=10	=10	=10	=10
2C]	1g	2.c	2.e	1cc	1ee
1c	.	.	.	.	.
.	.	4d	4f	.	.
.	1r	2e	2g	2cc	2r
2F	.	2f	2a	[2cc	4cc
.	.	.	.	.	4dd
=11	=11	=11	=11	=11	=11
1E	2.c	2.e	1g	2cc]	4ee
.	.	.	.	.	4ff
.	.	.	.	2cc	1gg
.	4d	4f	.	.	.
1r	2e	2g	1r	2b	.
.	2f	2a	.	2a	2cc
=12	=12	=12	=12	=12	=12
1c	2e	1g	0r	1cc	2.ee
.	2c	.	.	.	.
.	.	.	.	.	4ff
2c	2.e	2r	.	1g	1gg
[2c	.	4c	.	.	.
.	4f	4d	.	.	.
=13	=13	=13	=13	=13	=13
2c]	1.g	4e	2.e	2r	1ee
.	.	4f	.	.	.
2c	.	2g	.	2g	.
.	.	.	4f	.	.
2B	.	2G	2g	2b	2r
2A	2f	[2c	2a	[2cc	2cc
=14	=14	=14	=14	=14	=14
1c	1e	4c]	1g	4cc]	2ee
.	.	4d	.	4b	.
.	.	4e	.	4g	2.gg
.	.	4f	.	4a	.
1G	1d	1g	2r	4b	.
.	.	.	.	2cc	4ff
.	.	.	[2g	.	2dd
.	.	.	.	4b	.
=15	=15	=15	=15	=15	=15
1C	1c	2.e	4g]	[0cc	1ee
.	.	.	4g	.	.
.	.	.	2g	.	.
.	.	8f	.	.	.
.	.	8g	.	.	.
2r	1r	2a	2f	.	2r
[2c	.	2e	2g	.	[2ee
=16	=16	=16	=16	=16	=16
4c]	2r	1g	2.e	1cc]	4ee]
4c	.	.	.	.	4ee
2c	2.g	.	.	.	2ee
.	.	.	4f	.	.
2B	.	1r	2g	1r	2dd
.	4g	.	.	.	.
2c	2g	.	2e	.	[2cc
=17	=17	=17	=17	=17	=17
2A	2f	0r	2c	1r	2cc]
2B	2g	.	2d	.	4b
.	.	.	.	.	4a
[1c	2.e	.	2e	2r	1g
.	.	.	2c	[2cc	.
.	4f	.	.	.	.
=18	=18	=18	=18	=18	=18
1c]	2g	2r	2.e	4cc]	0r
.	.	.	.	4cc	.
.	2.e	2.g	.	2cc	.
.	.	.	4f	.	.
1r	.	.	2g	2b	.
.	4e	4g	.	.	.
.	2c	2g	2e	2cc	.
=19	=19	=19	=19	=19	=19
0r	2d	2f#	1d	2a	1r
.	2G	2g	.	2b	.
.	2A	2e	1c	2.cc	2r
.	2F	2f	.	.	[2cc
.	.	.	.	4dd	.
=20	=20	=20	=20	=20	=20
0r	2.c	2g	0r	4ee	4cc]
.	.	.	.	4ff	4cc
.	.	1e	.	2.gg	2cc
.	4d	.	.	.	.
.	4e	.	.	.	2b
.	4f	.	.	4ff	.
.	[2g	2c	.	2ee	2cc
=21	=21	=21	=21	=21	=21
1r	2g]	1d	2r	[0dd	2a
.	2f#	.	2.d	.	2a
2r	1g	4G	.	.	2b
.	.	4A	4d	.	.
[2G	.	4B	2d	.	[2b
.	.	4c	.	.	.
=22	=22	=22	=22	=22	=22
4G]	2r	1d	1g	1dd]	4b]
4G	.	.	.	.	4b
2G	2.d	.	.	.	2b
2F#	.	2r	2a	1r	2a
.	4d	.	.	.	.
2G	2d	[2G	[2g	.	2b
=23	=23	=23	=23	=23	=23
2E	2c	4G]	2g]	1r	2cc
.	.	4G	.	.	.
2F	2d	2A	2f	.	2a
2.G	2.B	2B	2e	2r	1g
.	.	2G	[2d	[2gg	.
4F	4A	.	.	.	.
=24	=24	=24	=24	=24	=24
1E	1G	2B	2d]	4gg]	0r
.	.	.	.	4gg	.
.	.	2c	1c	2gg	.
2D	2A	1d	.	2ff#	.
2G	2B	.	2B	2gg	.
=25	=25	=25	=25	=25	=25
0C	1G	2.e	2c	2.ee	1r
.	.	.	2.cc	.	.
.	.	4d	.	4ff	.
.	1r	4c	.	2gg	2r
.	.	4d	4cc	.	.
.	.	4e	2cc	2ee	[2gg
.	.	4f	.	.	.
=26	=26	=26	=26	=26	=26
0r	0r	2g	2b	2dd	4gg]
.	.	.	.	.	4gg
.	.	2c	2cc	2ee	2gg
.	.	1r	2a	2cc	2ff#
.	.	.	2b	2dd	2gg
=27	=27	=27	=27	=27	=27
0r	1r	0r	2cc	2ee	2ee
.	.	.	4b	4dd	2ff#
.	.	.	4a	4cc	.
.	2r	.	4g	2b	2.gg
.	.	.	4f	.	.
.	[2g	.	4e	[2ee	.
.	.	.	4d	.	4ff
=28	=28	=28	=28	=28	=28
0r	4g]	0r	1c	4ee]	2.ee
.	4g	.	.	4dd	.
.	2g	.	.	1cc	.
.	.	.	.	.	8dd
.	.	.	.	.	8cc
.	2f	.	2r	.	1dd
.	2g	.	[2g	2b	.
=29	=29	=29	=29	=29	=29
2r	2e	1r	4g]	[0cc	2cc
.	.	.	4g	.	.
2.F	2f	.	2a	.	2.a
.	2.c	2r	1f	.	.
4F	.	.	.	.	4a
2F	.	[2c	.	.	2a
.	4d	.	.	.	.
=30	=30	=30	=30	=30	=30
2E	2e	4c]	2g	1cc]	2g
.	.	4c	.	.	.
2F	2A	2c	1a	.	2f
2D	2d	2B	.	2r	2ff
2E	2G	2c	2g	[2cc	4ee
.	.	.	.	.	4dd
=31	=31	=31	=31	=31	=31
1F	2c	1A	1a	4cc]	2cc
.	.	.	.	4cc	.
.	2A	.	.	2cc	4ff
.	.	.	.	.	4ee
[1G	2d	2.B	2r	2b	4dd
.	.	.	.	.	4cc
.	2d	.	[2g	2g	[2dd
.	.	4c	.	.	.
=32	=32	=32	=32	=32	=32
2G]	1G	2d	2g]	2b	2dd]
2C	.	2e	2g	2cc	1cc
1G	2r	1d	2.g	1dd	.
.	2g	.	.	.	2b
.	.	.	4f	.	.
=33	=33	=33	=33	=33	=33
[0C	2g	[0c	4e	[0ee	[0cc
.	.	.	4d	.	.
.	2.g	.	4c	.	.
.	.	.	4d	.	.
.	.	.	2.e	.	.
.	4f	.	.	.	.
.	4e	.	.	.	.
.	4d	.	4f	.	.
=34	=34	=34	=34	=34	=34
0C]	0e	0c]	0g	0ee]	0cc]
*-	*-	*-	*-	*-	*-
!!!CDT: 1525/^1526/-1594/2/2
!!!OCY: Italia
!!!AGN: Mass (Parody)
!!!AST: renaissance, vocal
!!!ASW: Motet 1532 (Lupus Hellinck)
!!!PWK: Masses, Book 9
!!!RNB: Cadence finals: G,D
!!!YOR: Le Opere Complete, v. 25, p. 131
!!!YOO: Rome, Italy: Fratelli Scalera
!!!END: 1992//
!!!EED: John Miller
!!!YEC: Copyright 2000, John Miller
!!!YEN: United States of America
!!!YEM: Rights to all derivative electronic formats reserved.
!!!YEM: Refer to licensing agreement for further details.
!!!YEM: This file must be accompanied by the licensing agreement.
!!!YEM: A copy of the licensing agreement may be found at http://www.music-cog.ohio-state.edu/HumdrumDatabases/Palestrina/license.txt
!!!EMD: converted to Humdrum by Bret Aarden
